resources/svg/layers-union-o.svg

<svg xmlns="http://www.w3.org/2000/svg" viewBox="0 0 15 15" fill="none"><path d="M4.5 1.5V4.5H1.5C0.947715 4.5 0.5 4.94772 0.5 5.5V13.5C0.5 14.0523 0.947716 14.5 1.5 14.5H9.5C10.0523 14.5 10.5 14.0523 10.5 13.5V10.5H13.5C14.0523 10.5 14.5 10.0523 14.5 9.5V1.5C14.5 0.947715 14.0523 0.5 13.5 0.5H5.5C4.94772 0.5 4.5 0.947715 4.5 1.5Z" stroke="black"/></svg>

<svg xmlns="http://www.w3.org/2000/svg" viewBox="0 0 15 15" fill="none"><path d="M4.5 1.5v3h-3a1 1 0 00-1 1v8a1 1 0 001 1h8a1 1 0 001-1v-3h3a1 1 0 001-1v-8a1 1 0 00-1-1h-8a1 1 0 00-1 1z" stroke="currentColor"/></svg>
